lib/healthicons/icons/solid/symbols/clinical_fe.svg

<svg fill="none" height="48" viewBox="0 0 48 48" width="48" xmlns="http://www.w3.org/2000/svg"><g fill="#333"><path clip-rule="evenodd" d="m12 9c0-1.65685 1.3431-3 3-3h8c1.6569 0 3 1.34315 3 3h3c1.6569 0 3 1.3431 3 3v27c0 1.6569-1.3431 3-3 3h-20c-1.65685 0-3-1.3431-3-3v-27c0-1.6569 1.34315-3 3-3zm3-1c-.5523 0-1 .44772-1 1v2c0 .5523.4477 1 1 1h8c.5523 0 1-.4477 1-1v-2c0-.55228-.4477-1-1-1zm-1 10v3h-3v2h3v3h2v-3h3v-2h-3v-3zm-2 11c-.5523 0-1 .4477-1 1s.4477 1 1 1h14c.5523 0 1-.4477 1-1s-.4477-1-1-1zm-1 6c0-.5523.4477-1 1-1h14c.5523 0 1 .4477 1 1s-.4477 1-1 1h-14c-.5523 0-1-.4477-1-1z" fill-rule="evenodd"/><path d="m36 18c0-1.6569 1.3431-3 3-3s3 1.3431 3 3v3h-6z"/><path d="m36 38v-15h6v15l-3 4z"/></g></svg>

<svg width="48" height="48" viewBox="0 0 48 48" fill="none" xmlns="http://www.w3.org/2000/svg">
<path fill-rule="evenodd" clip-rule="evenodd" d="M12 9C12 7.34315 13.3431 6 15 6H23C24.6569 6 26 7.34315 26 9H29C30.6569 9 32 10.3431 32 12V39C32 40.6569 30.6569 42 29 42H9C7.34315 42 6 40.6569 6 39V12C6 10.3431 7.34315 9 9 9H12ZM15 8C14.4477 8 14 8.44772 14 9V11C14 11.5523 14.4477 12 15 12H23C23.5523 12 24 11.5523 24 11V9C24 8.44772 23.5523 8 23 8H15ZM14 18V21H11V23H14V26H16V23H19V21H16V18H14ZM12 29C11.4477 29 11 29.4477 11 30C11 30.5523 11.4477 31 12 31H26C26.5523 31 27 30.5523 27 30C27 29.4477 26.5523 29 26 29H12ZM11 35C11 34.4477 11.4477 34 12 34H26C26.5523 34 27 34.4477 27 35C27 35.5523 26.5523 36 26 36H12C11.4477 36 11 35.5523 11 35Z" fill="#333333"/>
<path d="M36 18C36 16.3431 37.3431 15 39 15C40.6569 15 42 16.3431 42 18V21H36V18Z" fill="#333333"/>
<path d="M36 38V23H42V38L39 42L36 38Z" fill="#333333"/>
</svg>
